tools/download-figma-icons/icons/solid/company.svg

<svg width="24" height="25" viewBox="0 0 24 25" fill="none" xmlns="http://www.w3.org/2000/svg">
<path fill-rule="evenodd" clip-rule="evenodd" d="M9.57726 12.3375H16.8223C16.8523 12.0743 16.8748 11.625 16.8748 11.4375C16.8748 8.66925 15.3148 6.375 12.0973 6.375C9.27726 6.375 7.12475 8.5275 7.12475 11.4375C7.12475 14.37 9.27726 16.5 12.1198 16.5C14.2498 16.5 15.5855 15.7425 16.7548 14.3475L14.993 12.975C14.4523 13.875 13.238 14.445 12.1198 14.445C10.8823 14.445 9.77301 13.5225 9.57726 12.3375ZM4.49976 0H19.4998C21.1573 0 22.4998 1.3725 22.4998 3.06V18.7575C22.4998 20.28 21.4048 21.57 19.928 21.7875L4.92801 23.97C3.28476 24.21 1.76226 23.0475 1.52976 21.375C1.50726 21.2318 1.49976 21.0825 1.49976 20.94V3.06C1.49976 1.3725 2.84226 0 4.49976 0ZM9.65256 10.59H14.5276C14.4301 9.17246 13.5451 8.39996 12.1876 8.39996C10.8601 8.39996 9.90006 9.31496 9.65256 10.59Z" fill="black"/>
</svg>

<svg xmlns="http://www.w3.org/2000/svg" width="24" height="25" fill="none" viewBox="0 0 24 25"><path fill="currentColor" fill-rule="evenodd" d="M9.577 12.338h7.245c.03-.264.053-.713.053-.9 0-2.769-1.56-5.063-4.778-5.063-2.82 0-4.972 2.153-4.972 5.063 0 2.932 2.152 5.062 4.995 5.062 2.13 0 3.466-.758 4.635-2.152l-1.762-1.373c-.54.9-1.755 1.47-2.873 1.47-1.238 0-2.347-.922-2.543-2.107M4.5 0h15c1.657 0 3 1.373 3 3.06v15.698c0 1.522-1.095 2.812-2.572 3.03l-15 2.182c-1.643.24-3.166-.922-3.398-2.595a3 3 0 0 1-.03-.435V3.06C1.5 1.373 2.842 0 4.5 0m5.153 10.59h4.875c-.098-1.418-.983-2.19-2.34-2.19-1.328 0-2.288.915-2.535 2.19" clip-rule="evenodd"/></svg>
